!!!COM: Edouard Lalo
!!!CNT: Francais
!!!TXO: Francais
!!!OTL: Le Suicide
!!!OPR: 6 Romances Populaires
!!!ONM: No. 3
!!!LYR: Pierre Jean de Be/ranger
!!!ENC: Jacob Pegg
!!!YOR: Romantic Garland Publishing, Inc., 1995, vol. 3
!!!ODT: 1849/
!!NB: Vocal melody and text only encoded.
!!NB: First instance of melodic material only encoded.
**kern	**silbe
*clef F4	*
*k[]	*
*M6/8	*
=5	=5
4r	.
8r	.
{16E	{Quoi!
16r	.
8.F	morts
16F#	tous
=6	=6
16G	deux!
16r	.
8F#	dans
8G	cet-
8B	-te
8.A	cham-
16G	-bre
=7	=7
[4G	clo-
8G]}	-se}
{8c	{Ou\
8d	du
8c	char-
=8	=8
8B	-bon
8A	pe\se
8G	en-
8A	-cor
8.G	la
16F	va-
=9	=9
[4E	-peur!
16E]}	|}
16r	.
{8E	{Leur
8F	vie,
16r	.
16F#	he/-
=10	=10
16G	-las!
16r	.
8F#	e/-
8G	-tait
8B	a\
8.A	peine
16G	e/-
=11	=11
[4G	-clo-
16G]}	-se,}
16r	.
{8G	{Sui-
8A	-cide
8A#	af-
=12	=12
8B	-freux!
8e	tris-
8d	-te ob-
8c	-jet
8.E	de
16F#	stu-
=13	=13
[4G;	-peur!
16G]}	|}
16r;	.
{8G	{Ils
8A-	au-
8G	-ront
=14	=14
16Fn	dit:
16r	.
8E-	le
8D	mon-
8C	-de
8E-	fait
8A-	nau-
=15	=15
[4G	-fra-
16G]}	-ge,}
16r	.
{8Bn	{Voy-
8.c	-ez
16d	pa^-
=16	=16
8e-	-lir
8d	pi-
8c	-lote
8G	et
8.E-	ma-
16F	-te-
=17	=17
[4D	-lots!
16D]}	|}
16r	.
{8G	{Vieux
8.A	ba\-
16G	-ti-
=18	=18
8F	-ment
8En	u-
8F	-se/
8d	par
8.d	tous
16c	les
=19	=19
[4B	flots,
16B]}	|}
16r	.
{8B	{Il
8.c	s'en-
16d	-glou-
=20	=20
16e-}	-tit!}
16r	.
{8.C	{sau-
16D	-vons~
8E-	~nous
8D	a\
8C	la
=21	=21
[4D;	na-
16D]}	-ge!}
16r;	.
{8En	{Et
8F	vers
8F#	le
=22	=22
16G	ciel
16r	.
8F#	se
8G	fra-
8B	-yant
8.A	un
16G	che-
=23	=23
[4e	-min,
16e]}	|}
16r	.
{8d	{Ils
8.c	sont
16A-	par-
=24	=24
8c	-tis
8E	en
8F	se
8E	don-
8D	-nant
8G	la
=25	=25
[4.C	main!
8C]}	|}
8r	.
8r	.
!!four melodically equivalent couplets follow.
*-	*-
